src/assets/rewardsWrapperIcon.svg

<svg width="64" height="57" viewBox="0 0 64 57" fill="none" xmlns="http://www.w3.org/2000/svg">
<circle opacity="0.6" cx="32" cy="33" r="24" fill="#CBF3EF"/>
<path opacity="0.7" fill-rule="evenodd" clip-rule="evenodd" d="M31.3451 33.6953C31.3451 37.541 31.3451 41.2652 31.3451 45.1919C28.4878 45.1919 25.6726 45.2728 22.8993 45.1109C21.6808 45.1109 21.4707 44.3418 21.4707 43.5321C21.4287 40.2937 21.4707 37.0552 21.4707 33.6953C24.8322 33.6953 28.0256 33.6953 31.3451 33.6953Z" fill="url(#paint0_linear_247_1010)"/>
<path opacity="0.7" fill-rule="evenodd" clip-rule="evenodd" d="M33 33.6953C33 37.541 33 41.2652 33 45.1919C35.8572 45.1919 38.6725 45.2728 41.4457 45.1109C42.6642 45.1109 42.8743 44.3418 42.8743 43.5321C42.9163 40.2937 42.8743 37.0552 42.8743 33.6953C39.5128 33.6953 36.3194 33.6953 33 33.6953Z" fill="url(#paint1_linear_247_1010)"/>
<g filter="url(#filter0_d_247_1010)">
<path fill-rule="evenodd" clip-rule="evenodd" d="M32.1437 23.413C33.0681 22.3201 33.8244 21.2676 34.7488 20.296C36.0514 18.9197 37.7322 18.6768 39.2028 19.4864C40.5894 20.2555 41.3458 21.8343 40.9676 23.2916C40.5054 24.9513 39.2868 25.8824 37.312 25.9229C33.8244 25.9633 30.3369 25.9633 26.8494 25.9229C24.9165 25.8824 23.74 24.9513 23.3198 23.2106C22.9836 21.7938 23.6559 20.296 25.0005 19.5269C26.4712 18.6768 28.0259 18.8387 29.3705 20.1341C30.3369 21.1461 31.1773 22.2796 32.1437 23.413ZM31.0512 24.506C29.9587 23.1702 29.2864 22.0367 28.278 21.2271C27.6897 20.7818 26.5132 20.5389 25.8409 20.8223C25.2526 21.0652 24.5383 21.8748 24.7484 22.8868C24.8745 23.575 25.8829 24.2227 26.5972 24.3846C27.8998 24.7084 29.2444 24.506 31.0512 24.506ZM33.2362 24.5465C35.085 24.6275 36.4296 24.7084 37.6481 24.4251C38.9507 24.1417 39.4129 23.3321 39.539 22.6034C39.623 22.0772 39.2028 21.1056 38.4885 20.8223C37.8162 20.5389 36.6397 20.7413 36.0934 21.1866C35.043 21.9557 34.0345 23.575 33.2362 24.5465Z" fill="url(#paint2_linear_247_1010)"/>
</g>
<g filter="url(#filter1_d_247_1010)">
<path fill-rule="evenodd" clip-rule="evenodd" d="M31.345 27.4613C31.345 29.0805 31.345 30.4973 31.345 32.1166C29.5802 32.1166 27.8575 32.1166 26.1347 32.1166C25.2103 32.1166 24.2859 32.1166 23.3615 32.1166C20.7563 32.1166 20 32.3999 20 29.4853C20 28.6352 20.1681 27.5018 21.7648 27.4613C24.8742 27.3803 27.9835 27.4613 31.345 27.4613Z" fill="url(#paint3_linear_247_1010)"/>
</g>
<g filter="url(#filter2_d_247_1010)">
<path fill-rule="evenodd" clip-rule="evenodd" d="M32.9834 32.1166C32.9834 30.3759 32.9834 28.9996 32.9834 27.4613C36.3449 27.4613 39.6223 27.4208 42.8998 27.5018C44.1603 27.5827 43.9923 29.121 43.9923 29.202C43.9923 32.4809 43.6141 32.1571 40.7148 32.1166C38.1517 32.1166 35.5885 32.1166 32.9834 32.1166Z" fill="url(#paint4_linear_247_1010)"/>
</g>
<defs>
<filter id="filter0_d_247_1010" x="3.23413" y="0" width="57.8305" height="46.9532" filterUnits="userSpaceOnUse" color-interpolation-filters="sRGB">
<feFlood flood-opacity="0" result="BackgroundImageFix"/>
<feColorMatrix in="SourceAlpha" type="matrix" values="0 0 0 0 0 0 0 0 0 0 0 0 0 0 0 0 0 0 127 0" result="hardAlpha"/>
<feOffset dy="1"/>
<feGaussianBlur stdDeviation="10"/>
<feColorMatrix type="matrix" values="0 0 0 0 1 0 0 0 0 1 0 0 0 0 1 0 0 0 0.4 0"/>
<feBlend mode="normal" in2="BackgroundImageFix" result="effect1_dropShadow_247_1010"/>
<feBlend mode="normal" in="SourceGraphic" in2="effect1_dropShadow_247_1010" result="shape"/>
</filter>
<filter id="filter1_d_247_1010" x="0" y="8.42529" width="51.345" height="44.6987" filterUnits="userSpaceOnUse" color-interpolation-filters="sRGB">
<feFlood flood-opacity="0" result="BackgroundImageFix"/>
<feColorMatrix in="SourceAlpha" type="matrix" values="0 0 0 0 0 0 0 0 0 0 0 0 0 0 0 0 0 0 127 0" result="hardAlpha"/>
<feOffset dy="1"/>
<feGaussianBlur stdDeviation="10"/>
<feColorMatrix type="matrix" values="0 0 0 0 1 0 0 0 0 1 0 0 0 0 1 0 0 0 0.4 0"/>
<feBlend mode="normal" in2="BackgroundImageFix" result="effect1_dropShadow_247_1010"/>
<feBlend mode="normal" in="SourceGraphic" in2="effect1_dropShadow_247_1010" result="shape"/>
</filter>
<filter id="filter2_d_247_1010" x="12.9834" y="8.45117" width="51.0163" height="44.6926" filterUnits="userSpaceOnUse" color-interpolation-filters="sRGB">
<feFlood flood-opacity="0" result="BackgroundImageFix"/>
<feColorMatrix in="SourceAlpha" type="matrix" values="0 0 0 0 0 0 0 0 0 0 0 0 0 0 0 0 0 0 127 0" result="hardAlpha"/>
<feOffset dy="1"/>
<feGaussianBlur stdDeviation="10"/>
<feColorMatrix type="matrix" values="0 0 0 0 1 0 0 0 0 1 0 0 0 0 1 0 0 0 0.4 0"/>
<feBlend mode="normal" in2="BackgroundImageFix" result="effect1_dropShadow_247_1010"/>
<feBlend mode="normal" in="SourceGraphic" in2="effect1_dropShadow_247_1010" result="shape"/>
</filter>
<linearGradient id="paint0_linear_247_1010" x1="21" y1="51.5" x2="21.3239" y2="35.5066" gradientUnits="userSpaceOnUse">
<stop stop-color="#B0ECE6"/>
<stop offset="1" stop-color="#7CE0D6"/>
</linearGradient>
<linearGradient id="paint1_linear_247_1010" x1="43.345" y1="51.5" x2="43.0211" y2="35.5066" gradientUnits="userSpaceOnUse">
<stop stop-color="#B0ECE6"/>
<stop offset="1" stop-color="#7CE0D6"/>
</linearGradient>
<linearGradient id="paint2_linear_247_1010" x1="33.1068" y1="6.97715" x2="29.8246" y2="25.1233" gradientUnits="userSpaceOnUse">
<stop stop-color="#B0ECE6"/>
<stop offset="1" stop-color="#7CE0D6"/>
</linearGradient>
<linearGradient id="paint3_linear_247_1010" x1="26.2817" y1="19.3006" x2="23.9355" y2="31.5137" gradientUnits="userSpaceOnUse">
<stop stop-color="#B0ECE6"/>
<stop offset="1" stop-color="#7CE0D6"/>
</linearGradient>
<linearGradient id="paint4_linear_247_1010" x1="39.0831" y1="19.3371" x2="36.6782" y2="31.5092" gradientUnits="userSpaceOnUse">
<stop stop-color="#B0ECE6"/>
<stop offset="1" stop-color="#7CE0D6"/>
</linearGradient>
</defs>
</svg>

<svg width="64" height="57" fill="none" xmlns="http://www.w3.org/2000/svg"><circle opacity=".6" cx="32" cy="33" r="24" fill="#CBF3EF"/><path opacity=".7" fill-rule="evenodd" clip-rule="evenodd" d="M31.345 33.695v11.497c-2.857 0-5.672.08-8.446-.081-1.218 0-1.428-.77-1.428-1.579-.042-3.238 0-6.477 0-9.837h9.874z" fill="url(#a)"/><path opacity=".7" fill-rule="evenodd" clip-rule="evenodd" d="M33 33.695v11.497c2.857 0 5.672.08 8.446-.081 1.218 0 1.428-.77 1.428-1.579.042-3.238 0-6.477 0-9.837H33z" fill="url(#b)"/><g filter="url(#c)"><path fill-rule="evenodd" clip-rule="evenodd" d="M32.144 23.413c.924-1.093 1.68-2.145 2.605-3.117 1.302-1.376 2.983-1.62 4.454-.81 1.386.77 2.143 2.348 1.765 3.806-.463 1.66-1.681 2.59-3.656 2.63-3.488.041-6.975.041-10.463 0-1.933-.04-3.109-.97-3.53-2.711-.335-1.417.337-2.915 1.681-3.684 1.471-.85 3.026-.688 4.37.607.967 1.012 1.807 2.146 2.774 3.279zm-1.093 1.093c-1.092-1.336-1.765-2.47-2.773-3.279-.588-.445-1.765-.688-2.437-.405-.588.243-1.303 1.053-1.093 2.065.127.688 1.135 1.336 1.85 1.498 1.302.323 2.646.121 4.453.121zm2.185.04c1.849.082 3.194.162 4.412-.12 1.303-.284 1.765-1.094 1.891-1.823.084-.526-.336-1.497-1.05-1.78-.673-.284-1.85-.082-2.396.364-1.05.769-2.059 2.388-2.857 3.36z" fill="url(#d)"/></g><g filter="url(#e)"><path fill-rule="evenodd" clip-rule="evenodd" d="M31.345 27.461v4.656h-7.984c-2.605 0-3.361.283-3.361-2.632 0-.85.168-1.983 1.765-2.024 3.11-.08 6.218 0 9.58 0z" fill="url(#f)"/></g><g filter="url(#g)"><path fill-rule="evenodd" clip-rule="evenodd" d="M32.983 32.117V27.46c3.362 0 6.64-.04 9.917.04 1.26.082 1.092 1.62 1.092 1.701 0 3.279-.378 2.955-3.277 2.915h-7.732z" fill="url(#h)"/></g><defs><linearGradient id="a" x1="21" y1="51.5" x2="21.324" y2="35.507" gradientUnits="userSpaceOnUse"><stop stop-color="#B0ECE6"/><stop offset="1" stop-color="#7CE0D6"/></linearGradient><linearGradient id="b" x1="43.345" y1="51.5" x2="43.021" y2="35.507" gradientUnits="userSpaceOnUse"><stop stop-color="#B0ECE6"/><stop offset="1" stop-color="#7CE0D6"/></linearGradient><linearGradient id="d" x1="33.107" y1="6.977" x2="29.825" y2="25.123" gradientUnits="userSpaceOnUse"><stop stop-color="#B0ECE6"/><stop offset="1" stop-color="#7CE0D6"/></linearGradient><linearGradient id="f" x1="26.282" y1="19.301" x2="23.936" y2="31.514" gradientUnits="userSpaceOnUse"><stop stop-color="#B0ECE6"/><stop offset="1" stop-color="#7CE0D6"/></linearGradient><linearGradient id="h" x1="39.083" y1="19.337" x2="36.678" y2="31.509" gradientUnits="userSpaceOnUse"><stop stop-color="#B0ECE6"/><stop offset="1" stop-color="#7CE0D6"/></linearGradient><filter id="c" x="3.234" y="0" width="57.831" height="46.953" filterUnits="userSpaceOnUse" color-interpolation-filters="sRGB"><feFlood flood-opacity="0" result="BackgroundImageFix"/><feColorMatrix in="SourceAlpha" values="0 0 0 0 0 0 0 0 0 0 0 0 0 0 0 0 0 0 127 0" result="hardAlpha"/><feOffset dy="1"/><feGaussianBlur stdDeviation="10"/><feColorMatrix values="0 0 0 0 1 0 0 0 0 1 0 0 0 0 1 0 0 0 0.4 0"/><feBlend in2="BackgroundImageFix" result="effect1_dropShadow_247_1010"/><feBlend in="SourceGraphic" in2="effect1_dropShadow_247_1010" result="shape"/></filter><filter id="e" x="0" y="8.425" width="51.345" height="44.699" filterUnits="userSpaceOnUse" color-interpolation-filters="sRGB"><feFlood flood-opacity="0" result="BackgroundImageFix"/><feColorMatrix in="SourceAlpha" values="0 0 0 0 0 0 0 0 0 0 0 0 0 0 0 0 0 0 127 0" result="hardAlpha"/><feOffset dy="1"/><feGaussianBlur stdDeviation="10"/><feColorMatrix values="0 0 0 0 1 0 0 0 0 1 0 0 0 0 1 0 0 0 0.4 0"/><feBlend in2="BackgroundImageFix" result="effect1_dropShadow_247_1010"/><feBlend in="SourceGraphic" in2="effect1_dropShadow_247_1010" result="shape"/></filter><filter id="g" x="12.983" y="8.451" width="51.016" height="44.693" filterUnits="userSpaceOnUse" color-interpolation-filters="sRGB"><feFlood flood-opacity="0" result="BackgroundImageFix"/><feColorMatrix in="SourceAlpha" values="0 0 0 0 0 0 0 0 0 0 0 0 0 0 0 0 0 0 127 0" result="hardAlpha"/><feOffset dy="1"/><feGaussianBlur stdDeviation="10"/><feColorMatrix values="0 0 0 0 1 0 0 0 0 1 0 0 0 0 1 0 0 0 0.4 0"/><feBlend in2="BackgroundImageFix" result="effect1_dropShadow_247_1010"/><feBlend in="SourceGraphic" in2="effect1_dropShadow_247_1010" result="shape"/></filter></defs></svg>
